X: 1
T:Carpathian Tune Harmony
M:C|
L:1/8
K:Gm
|: G^FGA B2B2 | A2A2 B2A2 | G2D2 ^F2G2 | ^F4 D4 | 
G^FGA B2B2 | A2A2 B2A2 | G2D2 ^F2D2 |G4 G4 :|
|: E2C2 E2C2 | G2D2 G2D2 | E2C2 E4 | G2^F2 D2D2 | 
E2C2 E2C2 | G2D2 G2D2 | A4 D4 |A4D4 :|
